svg/fluentui-system-icons/ic_fluent_checkbox_checked_20_regular.svg

<svg width="20" height="20" viewBox="0 0 20 20" fill="none" xmlns="http://www.w3.org/2000/svg">
<path d="M6 3C4.34315 3 3 4.34315 3 6V14C3 15.6569 4.34315 17 6 17H14C15.6569 17 17 15.6569 17 14V6C17 4.34315 15.6569 3 14 3H6ZM4 6C4 4.89543 4.89543 4 6 4H14C15.1046 4 16 4.89543 16 6V14C16 15.1046 15.1046 16 14 16H6C4.89543 16 4 15.1046 4 14V6ZM13.8536 7.85355C14.0488 7.65829 14.0488 7.34171 13.8536 7.14645C13.6583 6.95118 13.3417 6.95118 13.1464 7.14645L8.5 11.7929L6.85355 10.1464C6.65829 9.95118 6.34171 9.95118 6.14645 10.1464C5.95118 10.3417 5.95118 10.6583 6.14645 10.8536L8.14645 12.8536C8.34171 13.0488 8.65829 13.0488 8.85355 12.8536L13.8536 7.85355Z" fill="#212121"/>
</svg>

<svg xmlns="http://www.w3.org/2000/svg" width="20" height="20"><path d="M6 3a3 3 0 0 0-3 3v8a3 3 0 0 0 3 3h8a3 3 0 0 0 3-3V6a3 3 0 0 0-3-3H6ZM4 6a2 2 0 0 1 2-2h8a2 2 0 0 1 2 2v8a2 2 0 0 1-2 2H6a2 2 0 0 1-2-2V6Zm9.854 1.854a.5.5 0 0 0-.708-.708L8.5 11.793l-1.646-1.647a.5.5 0 0 0-.708.708l2 2a.5.5 0 0 0 .708 0l5-5Z"/></svg>
